X: 165
T: Laudate dominum
N: Derived from Rue2007-Laudate_dominum.krn
C: Pierre de la Rue
%%abc-version 2.0
%%abcx-abcm2ps-target-version 5.9.1 (29 Sep 2008)
%%abc-creator hum2abc beta
%%abcx-conversion-date 2019/02/17 08:01:16
%%abc-edited-by Jesse Rodin
%%abc-edited-by Chris Gage 01-04-2013
%%abcx-initial-encoding-date 2013/07/20/
%%humdrum-veritas 3235370369
%%humdrum-veritas-data 2361184667
%%linebreak <none>
%%barnumbers 0
L: 1/4
M: 2/1
Q: 1/2=120
%%staves [1 2 3 4]
V: 1 clef=treble
V: 2 clef=treble-8
V: 3 clef=treble-8
V: 4 clef=bass
K: C
[V:1] A4A2A2 | 
[V:2] z8 | 
[V:3] z8 | 
[V:4] z8 | 
[V:1] E4F4 | 
[V:2] z8 | 
[V:3] z8 | 
[V:4] A,4A,2A,2 | 
[V:1] G6FE | 
[V:2] e4e2e2 | 
[V:3] z8 | 
[V:4] E,4E,2G,2- | 
[V:1] D2F2E4 | 
[V:2] B4c4 | 
[V:3] z8 | 
[V:4] G,F,D,2A,4 | 
[V:1] F4D2F2- | 
[V:2] d6cB | 
[V:3] z8 | 
[V:4] D,4D,2D,2- | 
[V:1] FGA4^G2 | 
[V:2] A2c2B4 | 
[V:3] z8 | 
[V:4] D,C,A,,2E,4 | 
[V:1] A8 | 
[V:2] c4A2c2- | 
[V:3] A4A2A2 | 
[V:4] A,,8 | 
[V:1] z8 | 
[V:2] cde4d2 | 
[V:3] E4F4 | 
[V:4] z4D,4 | 
[V:1] z8 | 
[V:2] e8 | 
[V:3] G6FE | 
[V:4] C,2C,4D,E, | 
[V:1] z8 | 
[V:2] z8 | 
[V:3] D2F2E4 | 
[V:4] F,2D,4^C,2 | 
[V:1] z8 | 
[V:2] z8 | 
[V:3] F4D2F2- | 
[V:4] D,6C,B,, | 
[V:1] z8 | 
[V:2] z8 | 
[V:3] FGA4^G2 | 
[V:4] A,,2C,2B,,4 | 
[V:1] A4A2A2 | 
[V:2] z8 | 
[V:3] A8 | 
[V:4] A,,8 | 
[V:1] E4F4 | 
[V:2] z8 | 
[V:3] z8 | 
[V:4] A,4A,2A,2 | 
[V:1] G6FE | 
[V:2] e4e2e2 | 
[V:3] z8 | 
[V:4] E,2E,2E,2G,2- | 
[V:1] D2F2E4 | 
[V:2] B4c4 | 
[V:3] z8 | 
[V:4] G,F,D,2A,4 | 
[V:1] F3GA2B2- | 
[V:2] d6cB | 
[V:3] z8 | 
[V:4] D,8 | 
[V:1] BAA4^G2 | 
[V:2] A2c2B4 | 
[V:3] z8 | 
[V:4] z8 | 
[V:1] A4c4 | 
[V:2] c3de2f2- | 
[V:3] A4A2A2 | 
[V:4] z8 | 
[V:1] B2G2A4 | 
[V:2] fee4d2 | 
[V:3] E4F4 | 
[V:4] z8 | 
[V:1] G8 | 
[V:2] e4g4 | 
[V:3] G6FE | 
[V:4] C,2C,2G,,3A,, | 
[V:1] z8 | 
[V:2] f2d2e4 | 
[V:3] D2F2E4 | 
[V:4] B,,C,D,4^C,2 | 
[V:1] z8 | 
[V:2] d8 | 
[V:3] F3GA2B2- | 
[V:4] D,6C,B,, | 
[V:1] z8 | 
[V:2] z8 | 
[V:3] BAA4^G2 | 
[V:4] A,,2C,2B,,4 | 
[V:1] c3BAGA2- | 
[V:2] z8 | 
[V:3] A4c4 | 
[V:4] A,,8 | 
[V:1] A2G4^F2 | 
[V:2] z8 | 
[V:3] B2G2A4 | 
[V:4] z4D,4 | 
[V:1] G2G4G2 | 
[V:2] g3fede2- | 
[V:3] G8 | 
[V:4] G,,2G,2C,2G,2- | 
[V:1] G4G4 | 
[V:2] e2d4^c2 | 
[V:3] z8 | 
[V:4] G,F,E,D,E,4 | 
[V:1] F4F4- | 
[V:2] d2d4d2 | 
[V:3] z8 | 
[V:4] D,4D,4 | 
[V:1] F4D4 | 
[V:2] d4d4 | 
[V:3] z8 | 
[V:4] D,4D,4 | 
[V:1] E8 | 
[V:2] c4c4- | 
[V:3] c3BAGA2- | 
[V:4] A,,4A,,4 | 
[V:1] z8 | 
[V:2] c4A4 | 
[V:3] A2G4^F2 | 
[V:4] C,4D,4 | 
[V:1] z8 | 
[V:2] B8 | 
[V:3] G2G4G2 | 
[V:4] G,,2G,2E,2G,2- | 
[V:1] z8 | 
[V:2] z8 | 
[V:3] G4G4 | 
[V:4] G,F,E,D,E,4 | 
[V:1] A6A2 | 
[V:2] z8 | 
[V:3] F4F4- | 
[V:4] D,8- | 
[V:1] A2A2A2A2 | 
[V:2] z8 | 
[V:3] F4D4 | 
[V:4] D,8 | 
[V:1] G4G4- | 
[V:2] e6e2 | 
[V:3] E8 | 
[V:4] z2G,2C,2G,2- | 
[V:1] G2G2G4 | 
[V:2] e2e2e2e2 | 
[V:3] z8 | 
[V:4] G,F,E,D,C,4 | 
[V:1] F4F4 | 
[V:2] d4d4- | 
[V:3] z8 | 
[V:4] D,4D,4 | 
[V:1] F2F2D2D2 | 
[V:2] d2d2d4 | 
[V:3] z8 | 
[V:4] D,4D,4 | 
[V:1] E2cBAGA2- | 
[V:2] c4c4 | 
[V:3] A6A2 | 
[V:4] A,,4A,,4 | 
[V:1] A2G4^F2 | 
[V:2] c2c2A2A2 | 
[V:3] A2A2A2A2 | 
[V:4] C,4D,4 | 
[V:1] G8- | 
[V:2] B2gfede2- | 
[V:3] G4G4- | 
[V:4] G,,2C,D,E,F,G,2- | 
[V:1] G8 | 
[V:2] e2d4^c2 | 
[V:3] G2G2G4 | 
[V:4] G,F,E,D,E,4 | 
[V:1] z8 | 
[V:2] d8- | 
[V:3] F4F4 | 
[V:4] D,4z2D,2 | 
[V:1] z4D4 | 
[V:2] d8 | 
[V:3] F2F2D2D2 | 
[V:4] D,2D,2F,2F,2 | 
[V:1] G3GG2E2 | 
[V:2] z8 | 
[V:3] E2cBAGA2- | 
[V:4] C,4C,4- | 
[V:1] A2B2c4 | 
[V:2] z4A4 | 
[V:3] A2G4^F2 | 
[V:4] C,2B,,2A,,4 | 
[V:1] B4B2G2- | 
[V:2] d3dd2B2 | 
[V:3] G8- | 
[V:4] G,,8 | 
[V:1] G2A2B4 | 
[V:2] e2f2g4 | 
[V:3] G8 | 
[V:4] C,4G,,2G,,2 | 
[V:1] A8 | 
[V:2] f4f2d2- | 
[V:3] z8 | 
[V:4] D,2D,2F,3E, | 
[V:1] z8 | 
[V:2] d2e2f4 | 
[V:3] z4D4 | 
[V:4] D,2C,4B,,2 | 
[V:1] z8 | 
[V:2] e8 | 
[V:3] G3GG2E2 | 
[V:4] C,3D,E,2C,2 | 
[V:1] z2D2G2G2 | 
[V:2] z8 | 
[V:3] A2B2c4 | 
[V:4] D,4C,4 | 
[V:1] G3ABcB2- | 
[V:2] z8 | 
[V:3] B4B2G2- | 
[V:4] G,,8 | 
[V:1] B2A4G2 | 
[V:2] z2A2d2d2 | 
[V:3] G2A2B4 | 
[V:4] z4G,4 | 
[V:1] A2A2A2A2 | 
[V:2] d3efgf2- | 
[V:3] A8 | 
[V:4] D,2D,2D,E,F,G, | 
[V:1] E4F4 | 
[V:2] f2e4d2 | 
[V:3] z8 | 
[V:4] A,4F,4 | 
[V:1] G2G4FE | 
[V:2] e2e2e2e2 | 
[V:3] z8 | 
[V:4] E,8 | 
[V:1] D2F2E4 | 
[V:2] B4c4 | 
[V:3] z2D2G2G2 | 
[V:4] z4C,4 | 
[V:1] D8 | 
[V:2] d2d4cB | 
[V:3] G3ABcB2- | 
[V:4] G,,2G,,2G,,A,,B,,C, | 
[V:1] z8 | 
[V:2] A2c2B4 | 
[V:3] B2A4^G2 | 
[V:4] D,2C,2D,2E,2 | 
[V:1] z8 | 
[V:2] A8 | 
[V:3] A2A2A2A2 | 
[V:4] A,,4z2A,2 | 
[V:1] z8 | 
[V:2] z8 | 
[V:3] E4F4 | 
[V:4] G,2E,2E,2D,2 | 
[V:1] z8 | 
[V:2] z8 | 
[V:3] G2G4FE | 
[V:4] E,2C,3D,E,2 | 
[V:1] z8 | 
[V:2] z8 | 
[V:3] D2F2E4 | 
[V:4] F,2D,4^C,2 | 
[V:1] A4A2A2 | 
[V:2] z8 | 
[V:3] D8 | 
[V:4] D,4z4 | 
[V:1] E4F4 | 
[V:2] z8 | 
[V:3] z8 | 
[V:4] A,4A,2A,2 | 
[V:1] G2G4FE | 
[V:2] e4e2e2 | 
[V:3] z8 | 
[V:4] E,4E,2G,2- | 
[V:1] D2F2E4 | 
[V:2] B4c4 | 
[V:3] z8 | 
[V:4] G,F,D,2A,4 | 
[V:1] D8 | 
[V:2] d2d4cB | 
[V:3] z8 | 
[V:4] D,4D,2F,2- | 
[V:1] z8 | 
[V:2] A2c2B4 | 
[V:3] z8 | 
[V:4] F,G,A,4^G,2 | 
[V:1] z2A2c2c2 | 
[V:2] A8 | 
[V:3] A4A2A2 | 
[V:4] A,8 | 
[V:1] B2G2A4 | 
[V:2] z8 | 
[V:3] E4F4 | 
[V:4] z4A,,4 | 
[V:1] B4G4 | 
[V:2] z2e2g2g2 | 
[V:3] G2G4FE | 
[V:4] G,,2G,,2G,,2G,,A,, | 
[V:1] z8 | 
[V:2] f2d2e4 | 
[V:3] D2F2E4 | 
[V:4] B,,C,D,4^C,2 | 
[V:1] z4z2A2 | 
[V:2] f4d4 | 
[V:3] D8 | 
[V:4] D,4z2D,2 | 
[V:1] c2c2B2G2 | 
[V:2] z8 | 
[V:3] z8 | 
[V:4] A,2A,2G,2E,2 | 
[V:1] A4A4 | 
[V:2] z4z2e2 | 
[V:3] z2A2c2c2 | 
[V:4] F,4A,4 | 
[V:1] G4z4 | 
[V:2] g2g2f2d2 | 
[V:3] B2G2A4 | 
[V:4] E,4F,4 | 
[V:1] G4G2G2 | 
[V:2] e4e4 | 
[V:3] B4G4 | 
[V:4] E,8 | 
[V:1] A2A2c3B | 
[V:2] d4z4 | 
[V:3] z8 | 
[V:4] z2F,2F,2F,2 | 
[V:1] A2G2F4 | 
[V:2] d4d2d2 | 
[V:3] z4z2A2 | 
[V:4] F,2E,2D,4 | 
[V:1] E8 | 
[V:2] e2e2g3f | 
[V:3] c2c2B2G2 | 
[V:4] C,3D,E,F,G,2- | 
[V:1] z8 | 
[V:2] e2d2c4 | 
[V:3] A4A4 | 
[V:4] G,2F,E,F,4 | 
[V:1] z8 | 
[V:2] B8 | 
[V:3] G4z4 | 
[V:4] G,3F,E,2D,C, | 
[V:1] z8 | 
[V:2] z8 | 
[V:3] G4G2G2 | 
[V:4] D,C,B,,A,,B,,4 | 
[V:1] c4c2c2 | 
[V:2] z8 | 
[V:3] A2A2c3B | 
[V:4] A,,8- | 
[V:1] c3BA2GF | 
[V:2] z8 | 
[V:3] A2G2F4 | 
[V:4] A,,8 | 
[V:1] GFEDE4 | 
[V:2] g4g2g2 | 
[V:3] E8 | 
[V:4] z2C,2C,2C,2 | 
[V:1] D4z4 | 
[V:2] g3fe2dc | 
[V:3] z8 | 
[V:4] G,,2G,3A,B,C | 
[V:1] z8 | 
[V:2] dcBAB4 | 
[V:3] z8 | 
[V:4] B,2A,4^G,2 | 
[V:1] z8 | 
[V:2] A4z4 | 
[V:3] z8 | 
[V:4] A,2F,4E,D, | 
[V:1] z8 | 
[V:2] z8 | 
[V:3] c4c2c2 | 
[V:4] C,2C,2C,2A,,2 | 
[V:1] z8 | 
[V:2] z8 | 
[V:3] c3BA2GF | 
[V:4] C,2C,3D,E,F, | 
[V:1] z8 | 
[V:2] z8 | 
[V:3] GFEDE4 | 
[V:4] E,2D,4^C,2 | 
[V:1] z4z2A2 | 
[V:2] z8 | 
[V:3] D4z4 | 
[V:4] D,2D,2F,2F,2 | 
[V:1] c4c2c2 | 
[V:2] z8 | 
[V:3] z8 | 
[V:4] F,2F,2F,2F,2 | 
[V:1] c3BA2GF | 
[V:2] z4z2e2 | 
[V:3] z8 | 
[V:4] C,8 | 
[V:1] E2D2E4 | 
[V:2] g4g2g2 | 
[V:3] z8 | 
[V:4] C,2G,,2C,D,E,F, | 
[V:1] D2d3cBA | 
[V:2] g3fe2dc | 
[V:3] z8 | 
[V:4] G,4G,2G,2- | 
[V:1] G2A3^GG2 | 
[V:2] B2A2B4 | 
[V:3] z8 | 
[V:4] G,E,F,2E,4 | 
[V:1] A2A2c2c2 | 
[V:2] A8- | 
[V:3] z4z2A2 | 
[V:4] A,,8- | 
[V:1] c2c2c3B | 
[V:2] A8- | 
[V:3] c4c2c2 | 
[V:4] A,,8 | 
[V:1] A3GF3E/D/ | 
[V:2] A8- | 
[V:3] c3BA2GF | 
[V:4] A,,8- | 
[V:1] C2D4^C2 | 
[V:2] A8- | 
[V:3] E2D2E4 | 
[V:4] A,,8 | 
[V:1] D8 |]  
[V:2] A8 |]  
[V:3] D8 |]  
[V:4] D,,8 |]  



